X: 161670
T: Promenade Side-Step
T: Sleasch\'eim an Promenade
S: B.Breathnach:"Ceol Rince na hEireann" IV/46 
Z: B.Black
L: 1/8
M: 9/8
R: slipjig
K: Ador
e2A A3 GED|E2A A3 Bcd|e2A A3 GED|E2G G3 FGB :|
e2a a2g a2g|e2a a3 g2e|d2g g2e g3|aba g2e d3 :|
